assets/sonr-icons/video.svg

<svg xmlns="http://www.w3.org/2000/svg" width="24" height="24" fill="none"><path fill="currentColor" d="M20.362 4.327a3 3 0 0 1 1.311 1.311C22 6.28 22 7.12 22 8.8v6.4c0 1.68 0 2.52-.327 3.162a3 3 0 0 1-1.311 1.311C19.72 20 18.88 20 17.2 20H6.8c-1.68 0-2.52 0-3.162-.327a3 3 0 0 1-1.311-1.311C2 17.72 2 16.88 2 15.2V8.8c0-1.68 0-2.52.327-3.162a3 3 0 0 1 1.311-1.311C4.28 4 5.12 4 6.8 4h10.4c1.68 0 2.52 0 3.162.327m-9.848 3.818A1 1 0 0 0 9 9.003v5.993a1 1 0 0 0 1.514.858l4.997-2.988a1.01 1.01 0 0 0 0-1.734z"/></svg>

<svg xmlns="http://www.w3.org/2000/svg" width="24" height="24" fill="none" viewBox="0 0 24 24"><path fill="#000" d="M20.362 4.327C20.927 4.614 21.386 5.073 21.673 5.638C22 6.28 22 7.12 22 8.8V15.2C22 16.88 22 17.72 21.673 18.362C21.386 18.927 20.927 19.386 20.362 19.673C19.72 20 18.88 20 17.2 20H6.8C5.12 20 4.28 20 3.638 19.673C3.073 19.386 2.614 18.927 2.327 18.362C2 17.72 2 16.88 2 15.2V8.8C2 7.12 2 6.28 2.327 5.638C2.615 5.073 3.073 4.614 3.638 4.327C4.28 4 5.12 4 6.8 4H17.2C18.88 4 19.72 4 20.362 4.327ZM10.514 8.145C9.847 7.747 9 8.227 9 9.003V14.996C9 15.772 9.847 16.253 10.514 15.854L15.511 12.866C16.166 12.474 16.166 11.524 15.511 11.132L10.514 8.145Z"/></svg>
